packages/icon/src/svg/sort-asc.icon.svg

<svg role="img" aria-label="sort ascending icon" xmlns="http://www.w3.org/2000/svg" viewBox="0 0 24 24">
  <path d="M11,15.1727857 L8.7635527,12.942568 C8.56821122,12.7477707 8.25200897,12.7479912 8.05693937,12.9430608 L7.35355339,13.6464468 C7.15829124,13.8417089 7.15829124,14.1582914 7.35355339,14.3535535 L11.6464466,18.6464468 C11.8417088,18.8417089 12.1582912,18.8417089 12.3535534,18.6464468 L16.6464466,14.3535535 C16.8417088,14.1582914 16.8417088,13.8417089 16.6464466,13.6464468 L15.9430606,12.9430608 C15.747991,12.7479912 15.4317888,12.7477707 15.2364473,12.942568 L13,15.1727857 L13,6.5 C13,6.22385763 12.7761424,6 12.5,6 L11.5,6 C11.2238576,6 11,6.22385763 11,6.5 L11,15.1727857 Z"/>
</svg>

<svg aria-label="sort asc icon" viewBox="0 0 24 24"><path d="M11 15.173l-2.236-2.23a.5.5 0 00-.707 0l-.703.703a.5.5 0 000 .708l4.292 4.292a.5.5 0 00.708 0l4.292-4.292a.5.5 0 000-.708l-.703-.703a.5.5 0 00-.707 0L13 15.173V6.5a.5.5 0 00-.5-.5h-1a.5.5 0 00-.5.5v8.673z"/></svg>
